images_sukapura_svg/cmd/sc_paraspaceincrease.svg

<svg viewBox="0 0 16 16" xmlns="http://www.w3.org/2000/svg" xmlns:xlink="http://www.w3.org/1999/xlink"><linearGradient id="a" gradientUnits="userSpaceOnUse" x1="12.496094" x2="12.592044" xlink:href="#b" y1="9.5" y2="15.664012"/><linearGradient id="b" gradientTransform="translate(-25.627119 -8.474576)" gradientUnits="userSpaceOnUse" x1="14" x2="13.79661" y1="22" y2="2.135593"><stop offset="0" stop-color="#0040dd"/><stop offset="1" stop-color="#0a84ff"/></linearGradient><linearGradient id="c" gradientUnits="userSpaceOnUse" x1="12.208457" x2="12.496094" xlink:href="#b" y1=".267872" y2="6.5"/><path d="m11.5.5v2.984375h-2.0039062l3.0000002 3.015625 3-3.015625h-1.996094v-2.984375z" fill="url(#c)" stroke="url(#c)" stroke-linecap="round" stroke-linejoin="round" stroke-width=".999439" transform="matrix(1 0 0 -1 0 6.999979)"/><path d="m12.496094 9.5-3.0000002 3.015625h2.0039062v2.984375h2v-2.984375h1.996094z" fill="url(#a)" stroke="url(#a)" stroke-linecap="round" stroke-linejoin="round" stroke-width=".999439" transform="matrix(1 0 0 -1 0 25.000021)"/><g fill="#69696e"><rect height="1" ry=".380151" width="7" x="1" y="2.000001"/><rect height="1" ry=".440076" width="7" x="1" y="12"/><rect height="1" ry=".5" width="8" x="1" y="14"/><rect height="1" ry=".47603" width="8" x="1" y="4"/></g><g fill="#e9e9e9" fill-opacity=".992157"><rect height="1" ry=".380151" width="7" x="1" y="3.000001"/><rect height="1" ry=".440076" width="7" x="1" y="13"/><rect height="1" ry=".5" width="8" x="1" y="15"/><rect height="1" ry=".47603" width="8" x="1" y="5"/></g></svg>

<?xml version="1.0" encoding="UTF-8" standalone="no"?>
<svg
   xmlns:dc="http://purl.org/dc/elements/1.1/"
   xmlns:cc="http://creativecommons.org/ns#"
   xmlns:rdf="http://www.w3.org/1999/02/22-rdf-syntax-ns#"
   xmlns:svg="http://www.w3.org/2000/svg"
   xmlns="http://www.w3.org/2000/svg"
   xmlns:xlink="http://www.w3.org/1999/xlink"
   xmlns:sodipodi="http://sodipodi.sourceforge.net/DTD/sodipodi-0.dtd"
   xmlns:inkscape="http://www.inkscape.org/namespaces/inkscape"
   viewBox="0 0 16 16"
   version="1.1"
   id="svg24"
   sodipodi:docname="sc_paraspaceincrease.svg"
   inkscape:version="0.92.3 (unknown)">
  <metadata
     id="metadata30">
    <rdf:RDF>
      <cc:Work
         rdf:about="">
        <dc:format>image/svg+xml</dc:format>
        <dc:type
           rdf:resource="http://purl.org/dc/dcmitype/StillImage" />
      </cc:Work>
    </rdf:RDF>
  </metadata>
  <defs
     id="defs28">
    <linearGradient
       inkscape:collect="always"
       xlink:href="#a"
       id="linearGradient884"
       x1="12.496094"
       y1="9.5"
       x2="12.592044"
       y2="15.664012"
       gradientUnits="userSpaceOnUse" />
    <linearGradient
       gradientTransform="translate(-25.627119,-8.4745763)"
       id="a"
       gradientUnits="userSpaceOnUse"
       x1="14"
       x2="13.79661"
       y1="22"
       y2="2.1355929">
      <stop
         offset="0"
         stop-color="#0040dd"
         id="stop829" />
      <stop
         offset="1"
         stop-color="#0a84ff"
         id="stop831" />
    </linearGradient>
    <linearGradient
       inkscape:collect="always"
       xlink:href="#a"
       id="linearGradient859"
       x1="12.208457"
       y1="0.26787242"
       x2="12.496094"
       y2="6.5"
       gradientUnits="userSpaceOnUse" />
  </defs>
  <sodipodi:namedview
     pagecolor="#ffffff"
     bordercolor="#666666"
     borderopacity="1"
     objecttolerance="10"
     gridtolerance="10"
     guidetolerance="10"
     inkscape:pageopacity="0"
     inkscape:pageshadow="2"
     inkscape:window-width="1366"
     inkscape:window-height="706"
     id="namedview26"
     showgrid="false"
     inkscape:zoom="7.375"
     inkscape:cx="-35.352851"
     inkscape:cy="9.6464886"
     inkscape:window-x="0"
     inkscape:window-y="0"
     inkscape:window-maximized="1"
     inkscape:current-layer="svg24" />
  <g
     style="fill:#0a84ff;stroke:#0a84ff;stroke-linecap:round;stroke-linejoin:round"
     transform="translate(1.46328e-8,-2.1179766e-5)"
     id="g12">
    <path
       style="fill:url(#linearGradient859);fill-opacity:1;stroke:url(#linearGradient859);stroke-width:0.99943942"
       d="M 11.5,0.5 V 3.484375 H 9.4960938 L 12.496094,6.5 l 3,-3.015625 H 13.5 V 0.5 Z"
       transform="matrix(1,0,0,-1,0,7)"
       id="path8"
       inkscape:connector-curvature="0"
       sodipodi:nodetypes="cccccccc" />
  </g>
  <g
     style="fill:#0a84ff;stroke:#0a84ff;stroke-linecap:round;stroke-linejoin:round"
     transform="matrix(1,0,0,-1,1.46328e-8,16.000021)"
     id="g6-1">
    <path
       inkscape:connector-curvature="0"
       style="fill:url(#linearGradient884);fill-opacity:1;stroke:url(#linearGradient884);stroke-width:0.99943942"
       d="M 12.496094,9.5 9.4960938,12.515625 H 11.5 V 15.5 h 2 v -2.984375 h 1.996094 z"
       transform="translate(0,-9)"
       id="path2-2" />
  </g>
  <g
     fill="#69696e"
     id="g16">
    <rect
       height="1"
       ry=".380151"
       width="7"
       x="1"
       y="2.000001"
       id="rect8" />
    <rect
       height="1"
       ry=".440076"
       width="7"
       x="1"
       y="12"
       id="rect10" />
    <rect
       height="1"
       ry=".5"
       width="8"
       x="1"
       y="14"
       id="rect12" />
    <rect
       height="1"
       ry=".47603"
       width="8"
       x="1"
       y="4"
       id="rect14" />
  </g>
  <g
     id="g836"
     transform="translate(0,1)"
     style="fill:#e9e9e9;fill-opacity:0.99215686">
    <rect
       id="rect828"
       y="2.000001"
       x="1"
       width="7"
       ry="0.380151"
       height="1"
       style="fill:#e9e9e9;fill-opacity:0.99215686" />
    <rect
       id="rect830"
       y="12"
       x="1"
       width="7"
       ry="0.44007599"
       height="1"
       style="fill:#e9e9e9;fill-opacity:0.99215686" />
    <rect
       id="rect832"
       y="14"
       x="1"
       width="8"
       ry="0.5"
       height="1"
       style="fill:#e9e9e9;fill-opacity:0.99215686" />
    <rect
       id="rect834"
       y="4"
       x="1"
       width="8"
       ry="0.47602999"
       height="1"
       style="fill:#e9e9e9;fill-opacity:0.99215686" />
  </g>
</svg>
